usr/share/icons/biglinux-icons-material-dark/22/actions/view-financial-account-cash-closed.svg

<svg version="1.1" viewBox="0 0 22 22" xmlns="http://www.w3.org/2000/svg"><style type="text/css" id="current-color-scheme">.ColorScheme-NegativeText { color: #da4453; }.ColorScheme-Text { color: #dedede; }</style>
    <path d="m3 6v10h10.878906l-1-1h-6.878906v-1h-1v-1h-1v-4h1v-1h0.8789062l-2-2h-0.8789062zm5.1210938 0 1 1h6.8789062v1h1v1h1v4h-1v1h-0.878906l2 2h0.878906v-10h-10.878906zm2.8789062 2c-0.266807 0-0.52134 0.0459677-0.767578 0.1113281l0.902344 0.9023438c0.994931 0.0675973 1.783965 0.8566309 1.851562 1.8515621l0.902344 0.902344c0.06536-0.246238 0.111328-0.500771 0.111328-0.767578 0-1.656854-1.343146-3-3-3zm-2.8886719 2.232422c-0.0653604 0.246238-0.1113281 0.500771-0.1113281 0.767578 0 1.656854 1.3431458 3 3 3 0.266807 0 0.52134-0.045968 0.767578-0.111328l-0.902344-0.902344c-0.9949316-0.067597-1.7839648-0.856631-1.8515621-1.851562l-0.9023438-0.902344z" fill="currentColor" class="ColorScheme-Text"/>
    <path d="M 3.7070313,2.9999999 3.0000001,3.7070311 18.292969,19 19,18.292969 Z" fill="currentColor" class="ColorScheme-NegativeText"/>
</svg>

<svg xmlns="http://www.w3.org/2000/svg" viewBox="0 0 22 22">
<style id="current-color-scheme" type="text/css">
.ColorScheme-NegativeText{color:#da4453}.ColorScheme-Text{color:#dedede}
</style>
<path fill="currentColor" d="M3 6v10h10.879l-1-1H6v-1H5v-1H4V9h1V8h.879l-2-2zm5.121 0 1 1H16v1h1v1h1v4h-1v1h-.879l2 2H19V6zM11 8a3 3 0 0 0-.768.111l.903.903a1.99 1.99 0 0 1 1.851 1.851l.903.903A3 3 0 0 0 14 11a3 3 0 0 0-3-3m-2.889 2.232A3 3 0 0 0 8 11a3 3 0 0 0 3 3 3 3 0 0 0 .768-.111l-.903-.903a1.99 1.99 0 0 1-1.851-1.851z" class="ColorScheme-Text"/>
<path fill="currentColor" d="M3.707 3 3 3.707 18.293 19l.707-.707Z" class="ColorScheme-NegativeText"/>
</svg>
